

// Cmd + Shift + L

// ----- 1. OVERFLOW --------

"/Users/nikitasmelk/Desktop/RECITAL/Overflow-SynthDefs.scd".load;
"/Users/nikitasmelk/Desktop/RECITAL/Overflow-MIDI.scd".load;

// 16 MIDI - bottom left start overflow samples
// 17 MIDI - stop samples




// ----- 2. Dinamo-Kievsakay & Odessa ---------


// Cmd + Shift + L

"/Users/nikitasmelk/Desktop/RECITAL/Train-SynthDefs.scd".load;
"/Users/nikitasmelk/Desktop/RECITAL/Train-MIDI.scd".load;
//"/Users/nikitasmelk/Desktop/RECITAL/Train-Fork.scd".load;





// ------ 4. Televized + Gentle Rain  -------
// Cmd + Shift + L


"/Users/nikitasmelk/Desktop/RECITAL/RAIN-SynthDefs.scd".load;
"/Users/nikitasmelk/Desktop/RECITAL/RAIN-MIDI.scd".load;

// MIDI 18 - START TELEVIZED PLAYER
// MIDI 16 - RAIN SAMPLE




